!!!!SEGMENT: pl-kk--kk-i-210--002_anonim--suscipe-quas-dedimus.krn
!!!cenid: 16xx:767
!!!COM: Anonim
!!!COM-rismID: pe30004985
!!!CDT:
!!!CNT:
!!!OTL: Suscipe quas dedimus
!!!PDT:
!!!AGN: Sacred
!!!YEC: Copyright 2022 Narodowy Instytut Fryderyka Chopina (https://polishscores.org)
!!!YEM: License CC-BY-4.0 (https://creativecommons.org/licenses/by/4.0)
!!!SMS-siglum: PL-Kk
!!!SMS-shelfmark: Kk.I.210
!!!SMS-shelfwork: 002 W
!!!SMS-variant:
!!!SMS-altvar:
!!!NIFC-rismSourceID: 1001143693
!!!NIFC-rismChildID: 1001143697
!!!NIFC-islandoraID: pl-kk:4224
!!!URL-pdf-islandora: https://repozytorium.nifc.pl/islandora/object/pl-kk%3A4224/datastream/PDF/view
!!!URL-scan: https://polish.musicsources.pl/pl/lokalizacje/galeria/rekopisy/5835 @EN{Scan on Polish Music Sources Website} @PL{Skany w portalu Dziedzictwo Muzyki Polskiej w otwartym dostępie}
!!!IIIF:
!!!ONB-nifc: UWAGA: utwory w zbiorze: 1. Miraculis virtutibus, 2. Suscipe quas dedimus
!!!AIN: 1 vox
!!!key:
**kern	**text
*staff1	*
*Ivox	*
*I"Canto.	*
*I'C	*
*clefC1	*
*k[b-e-a-]	*
*B-:	*
*M3/4	*
=1	=1
!LO:TX:t=P:problem=kolejność znaków b- ee- a- e-	!
!LO:TX:a:t=P:all\right:problem	!
4.b-\	Sus-
8b-\	-ci-
4an\	-pe
=2	=2
4.b-\	sus-
8b-\	-ci-
4dd\	-pe
=3	=3
8cc\L	quas
8b-\J	.
4.an\	de-
8a\	-di-
=4	=4
4b-\	-mus
4dd\	Jo-
4cc\	-an-
=5	=5
4b-\	-nes
4an\	Be-
4a\	-a-
=6	=6
*2\right	*
2b-\	-te,
4b-\	.
=7	=7
4.ee-\	Sus-
8ee-\	-ci-
4ff\	-pe
=8	=8
4.ee-\	sus-
8ee-\	-ci-
4ee-\	-pe
=9	=9
4ee-\	quas
4.ee-\	de-
8dd\	-di-
!!LO:LB:g=original
=10	=10
2dd\	-mus
4ff\	Jo-
=11	=11
4b-\	-a-
4.cc\	-nes
8cc\	Be-
=12	=12
2dd\	-a-
4dd\	-te
=13	=13
2dd\	Ti-
4dd\	-bi
=14	=14
4cc\	pre-
(4an\	-ces
4b-\)	.
=15	=15
!	!LO:MO:mod=sup-
4.b-\	su-
8b-\	-pli-
4b-\	-ces
=16	=16
4cc\	no-
2b-\	-ster
=17	=17
!LO:TX:t=P:problem=od taktu nr 17 do końca niejednoznaczny podział tekstu [zapisano zgodnie ze źródłem]	!
2.b-\	ad_vo-
=18	=18
4.cc\	-ca_te
8cc\	Fi_e-
4ee-\	-ri
=19	=19
4dd-X\	dum
4.dd-\	vi-
8dd-\	-vi-
!!LO:LB:g=original
=20	=20
2cc\	-mus
4ee-\	ne
=21	=21
2ee-\	si-
4ee-\	-nas
=22	=22
8dd-X\L	in-
8cc\J	.
2b-\	-fa-
=23	=23
2.cc\	-mes
=24	=24
4ee-\	E(t)
4b-\	no-
4ee-\	.
=25	=25
4ee-\	.
4ee-\	-stros
4dd\	post
=26	=26
4.ee-\	o-
8b-\	-bi-
4b-\	-tum
=27	=27
4b-\	Cae-
8a-\L	-lis
8g\J	.
4a-\	in-
=28	=28
4a-\	-fer
8g\L	.
8f\J	.
4g\	in-
=29	=29
2b-\	-fer
4ee-\	.
=30	=30
4ee-\	ma-
4ee-\	.
4dd\	.
=31	=31
2.ee-\	-nes
==	==
*-	*-
!!!EED: Leszek Kubiak
!!!EEV: 2021-02-19
!!!ENC: Andrzej Kubiczek
!!!END: 2021-02-12
